!!!COM: Palestrina, Giovanni Perluigi da
!!!OPR: Missa O magnum mysterium
!!!OMD: Credo
!!!OTL: Crucifixus
**kern	**kern	**kern	**kern
*Itenor	*Icalto	*Icalto	*Icant
!Tenor	!Altus 2	!Altus 1	!Cantus
*clefGv2	*clefG2	*clefG2	*clefG2
*k[]	*k[]	*k[]	*k[]
*E:phr	*E:phr	*E:phr	*E:phr
*M4/2	*M4/2	*M4/2	*M4/2
=83	=83	=83	=83
0r	0r	1A	1.a
.	.	1c	.
.	.	.	2g
=84	=84	=84	=84
0r	0r	1.d	1f
.	.	.	1e
.	.	2c	.
=85	=85	=85	=85
1r	0r	2e	2g
.	.	2e	2g
[1A	.	2f	2.a
.	.	4e	.
.	.	4d	4b
=86	=86	=86	=86
2A]	0r	4c	2cc
.	.	4d	.
2G	.	4e	2.b
.	.	8d	.
.	.	8c	.
1F	.	4d	.
.	.	4c	4a
.	.	4c	2a
.	.	8B	.
.	.	8A	.
=87	=87	=87	=87
1E	0r	2B	4g
.	.	.	8a
.	.	.	8b
.	.	2e	1cc
2G	.	1d	.
2G	.	.	2b
=88	=88	=88	=88
2.A	1.e	1.c	1cc
4B	.	.	.
2c	.	.	1r
[2B	2d	2G	.
=89	=89	=89	=89
4B]	1c	1A	1e
4A	.	.	.
2A	.	.	.
4E	1B	1r	1g
4F	.	.	.
4G	.	.	.
4E	.	.	.
=90	=90	=90	=90
1F	2d	2.A	1.a
.	2d	.	.
.	.	4B	.
2E	2.e	2c	.
[2E	.	2B	2g
.	4f	.	.
=91	=91	=91	=91
2E]	2g	2e	2.b
2E	2.g	2e	.
.	.	.	4b
2G	.	2d	2b
.	4f	.	.
2A	[2e	[2c	2cc
=92	=92	=92	=92
1F	2e]	2c]	1a
.	2d	4B	.
.	.	4A	.
1E	2e	2B	2g#
.	2e	2B	2b
=93	=93	=93	=93
0r	2.g	2.e	2.cc
.	4f	4d	4b
.	2e	2c	2a
.	2d	2B	2g
=94	=94	=94	=94
1r	2e	2c	1a
.	2f#	2d	.
2r	2g	2G	1b
2G	2d	2g	.
=95	=95	=95	=95
2.c	2.e	2.a	0r
4B	4d	4g	.
2A	2c	2f	.
2G#	2B	2e	.
=96	=96	=96	=96
2.A	2.c	4f	1r
.	.	4e	.
.	.	2.e	.
4G	4B	.	.
2F	2A	.	2r
.	.	4d	.
2G	[2G	2d	2b
=97	=97	=97	=97
0C	2G]	2e	2.cc
.	2G	2c	.
.	.	.	4b
.	2.c	2.e	2a
.	.	.	2g
.	4d	4d	.
=98	=98	=98	=98
1r	2e	2c	4a
.	.	.	4g
.	2d	2B	2.g
[1c	2e	1A	.
.	.	.	8f
.	.	.	8e
.	4d	.	2f#
.	4c	.	.
=99	=99	=99	=99
1c]	1e	1G	0g
1B	1d	1g	.
=100	=100	=100	=100
0A	1r	1f	0cc
.	1a	[1e	.
=101	=101	=101	=101
1E	1g	1e]	1b
[1F	2f	1c	[1a
.	2f	.	.
=102	=102	=102	=102
2F]	2c	2f	2a]
2E	2e	2g	2g
1F	4d	1a	2f
.	4c	.	.
.	[2c	.	2e
=103	=103	=103	=103
0G	2c]	0g	2.d
.	4B	.	.
.	4A	.	4c
.	1B	.	1d
*-	*-	*-	*-
!!!CDT: 1525/^1526/-1594/2/2
!!!OCY: Italia
!!!AGN: Mass (Parody)
!!!AST: renaissance, vocal
!!!ASW: Motet 1569 (Palestrina)
!!!PWK: Masses, Book 4
!!!RNB: Cadence finals: A,C,G,F
!!!YOR: Le Opere Complete, v. 10, p. 150
!!!YOO: Rome, Italy: Fratelli Scalera
!!!END: 1992//
!!!EED: John Miller
!!!YEC: Copyright 2000, John Miller
!!!YEN: United States of America
!!!YEM: Rights to all derivative electronic formats reserved.
!!!YEM: Refer to licensing agreement for further details.
!!!YEM: This file must be accompanied by the licensing agreement.
!!!YEM: A copy of the licensing agreement may be found at http://www.music-cog.ohio-state.edu/HumdrumDatabases/Palestrina/license.txt
!!!EMD: converted to Humdrum by Bret Aarden
